X:602
T:Cavehill
B:Kerr's Merry Melodies Bk 3
Z:Nigel Gatherer
L:1/8
M:6/8
K:G
d2B BcB | def gfe | d2B BcB | A2B cBA  |
d2B BcB | def gfe | dBG DEF | G3  G3  :|
D2G GAG | B2G GAG | E2A ABA | cBA GFE  |
D2G GAG | B2G GAG | dBG DEF | G3  G3 :|]
<end>
<start>
